X:290
T: Tinker's Wife
S: Darley & McCall Collection
Z: B.Black
L: 1/8
M: 4/4
R: reel
K: Dm
(3DEF GE FDEC|DFGA B2 c2|defd c2 dc|cAGE GEFE|
(3DEF GE FDEC|DFGA B2 c2|defd cAGE|(3FED EC D4||
Dddd dcAc|dcAG FDEC|Dddd dcAc|dcAG FD D2|
Dddd dcAc|dcAG FDEC|(3DEF GE FGAG|(3FED EC D4||
